X:105
T:Christ Jesus Lay In Death's Strong Bands
%%stretchlast false
M:4/4
L:1/4
K:Ab clef=C1
"^ii"[B,,B,DF]2 "^iii"[C,G,CE] "^vi"[F,A,CF] | "^IV"[D,F,FA] "^ii"[B,,F,DB] "^vi²"[C,F,CA] "^III"[C,=E,CG]/ "^III7"[C,=E,B,G]/ | "^♯vii"[F,,F,A,F]3/2 "^IV"[D,F,A,F]/ "^ii"[B,,F,B,D] "^I"[A,,A,CE] | "^IV"[D,,A,DF] "^v"[E,,_G,B,E]/ "^ii"[B,,F,B,D]/ [F,,F,B,C]/ "^VI"[F,,F,=A,C]/ "^♯iii"[B,,D,B,] | "^ii"[B,,B,DF]2 "^iii"[C,G,CE] "^vi"[F,A,CF] | "^IV"[D,F,FA] "^ii"[B,,F,DB] "^vi²"[C,F,CA] "^III"[C,=E,CG]/ "^III7"[C,=E,B,G]/ | "^♯vii"[F,,F,A,F]3/2 "^IV"[D,F,A,F]/ "^ii"[B,,F,B,D] "^I"[A,,A,CE] | "^IV"[D,,A,DF] "^v"[E,,_G,B,E]/ "^ii"[B,,F,B,D]/ [F,,F,B,C]/ "^VI"[F,,F,=A,C]/ "^♯iii"[B,,D,B,] | "^ii"[B,,D,F,B,] [B,,F,B,D] "^v"[E,,_G,B,E] "^♭VII"[_G,,D,_G,B,]/ [_G,,D,A,B,]/ | "^IV¹"[F,,F,A,D] "^V"[E,,G,B,E]/ "^iii¹"[E,,G,CE]/ "^IV"[D,,A,DF]3/2 [D,F,A,F]/ | "^ii"[B,,F,DB] "^vi"[F,A,CA] "^V"[E,G,EB] "^iii"[C,G,Ec] | "^vi"[F,CA] "^III"[C,=E,CG]/ "^III7"[C,=E,B,G]/ "^♯vii"[F,,F,A,F]3/2 "^IV"[D,A,DF]/ | "^I¹"[C,A,EA] "^IV"[D,A,DF] "^vi"[F,,A,CA] "^I"[A,,A,CE] | "^ii¹"[D,,F,B,D]/ "^v"[E,,F,B,]/ "^VI"[F,,F,=A,C]/ "^VI7"[F,,E,=A,C]/ "^♭VII"[_G,,D,B,]2 | "^IV"[D,,A,DF] "^v"[E,,_G,B,E]/ "^ii"[B,,F,B,D]/ [F,,F,B,C]/ "^VI"[F,,F,=A,C]/ "^♯iii"[B,,D,B,] |]
